src/assets/icon-yellow.svg

<svg fill="none" height="36" viewBox="0 0 36 36" width="36" xmlns="http://www.w3.org/2000/svg"><path d="m18.0022 0c-9.94262 0-18.0022 8.06058-18.0022 18 0 9.9394 8.05958 18 18.0022 18 9.9427 0 17.9978-8.0606 17.9978-18 0-9.93942-8.0559-18-17.9978-18zm10.2454 25.6143c-2.2505.1949-4.5768-.6203-6.271-2.0826-3.0244-2.7496-6.0054-5.5461-8.9431-8.3894l-.0045 11.4873c-1.2777.0932-2.5551.1884-3.8323.2856 0-4.8907 0-9.7817 0-14.673.09222-1.7338-1.46361-2.31021-1.46361-2.31021h5.35991c3.2332 3.29161 6.5241 6.52341 9.8727 9.69541.5809.5653.8709.8465 1.451 1.4058l.0134-11.10196h3.8376c-.0065 5.22746-.0132 10.45516-.0201 15.68306z" fill="#ffc700"/></svg>

<svg width="36" height="36" viewBox="0 0 36 36" fill="none" xmlns="http://www.w3.org/2000/svg">
<path d="M18.0022 0C8.05958 0 0 8.06058 0 18C0 27.9394 8.05958 36 18.0022 36C27.9449 36 36 27.9394 36 18C36 8.06058 27.9441 0 18.0022 0ZM28.2476 25.6143C25.9971 25.8092 23.6708 24.994 21.9766 23.5317C18.9522 20.7821 15.9712 17.9856 13.0335 15.1423L13.029 26.6296C11.7513 26.7228 10.4739 26.818 9.1967 26.9152C9.1967 22.0245 9.1967 17.1335 9.1967 12.2422C9.28892 10.5084 7.73309 9.93199 7.73309 9.93199H13.093C16.3262 13.2236 19.6171 16.4554 22.9657 19.6274C23.5466 20.1927 23.8366 20.4739 24.4167 21.0332L24.4301 9.93124H28.2677C28.2612 15.1587 28.2545 20.3864 28.2476 25.6143Z" fill="#FFC700"/>
</svg>
